img/assets/sectionServices/magazine.svg

<?xml version="1.0" encoding="UTF-8"?>
<svg width="82px" height="80px" viewBox="0 0 82 80" version="1.1" xmlns="http://www.w3.org/2000/svg" xmlns:xlink="http://www.w3.org/1999/xlink">
    <!-- Generator: Sketch 61 (89581) - https://sketch.com -->
    <title>magazine</title>
    <desc>Created with Sketch.</desc>
    <g id="Inner-Pages" stroke="none" stroke-width="1" fill="none" fill-rule="evenodd">
        <g id="036--Services-2" transform="translate(-919.000000, -1112.000000)" fill="#888888" fill-rule="nonzero">
            <g id="section-SERVICES" transform="translate(400.000000, 618.000000)">
                <g id="service-5" transform="translate(390.000000, 390.000000)">
                    <g id="content" transform="translate(80.000000, 104.000000)">
                        <g id="magazine" transform="translate(49.000000, 0.000000)">
                            <path d="M80.3611738,0.180410298 L19.790158,0.180410298 C19.4174239,0.177580453 19.0597792,0.327630701 18.8007693,0.595686095 C18.5417595,0.863741488 18.4040698,1.2263244 18.4198646,1.59873589 L18.4198646,56.3431151 L1.62528217,56.3431151 C0.821289617,56.3581048 0.178079769,57.0154653 0.180296972,57.8195937 L0.180296972,69.0907449 C0.159839348,71.9584115 1.25331637,74.7221134 3.23051919,76.7992777 C5.17528081,78.8510914 7.88071583,80.0091914 10.7077201,80.0000543 L72.2878555,80.0000543 C77.5360722,80.0000543 81.8058691,75.5936795 81.8058691,70.1453725 L81.8058691,1.59873589 C81.8048053,1.21832644 81.6513971,0.854196617 81.3799233,0.58771119 C81.1084496,0.321225763 80.7415376,0.174596218 80.3611738,0.180410298 Z M10.7077201,77.1371586 C8.66804416,77.1383724 6.71817684,76.2982537 5.31810384,74.8149887 C3.85635442,73.2696313 3.05053205,71.2178234 3.06997743,69.0907449 L3.06997743,59.2325056 L18.4198978,59.2325056 L18.4198978,69.0907449 C18.4259151,71.2224648 17.6069751,73.2738594 16.1345372,74.8153499 C14.7198187,76.2997028 12.7582637,77.1389332 10.7077201,77.1371586 L10.7077201,77.1371586 Z M78.9164786,70.1453725 C78.9164786,74.0007223 75.9429345,77.1106095 72.2878555,77.1106095 L17.8600451,77.1106095 C17.9700226,77.1106095 18.1152144,76.9099774 18.221219,76.7990971 C20.2092607,74.7260521 21.3161696,71.9629875 21.3092551,69.0907449 L21.3092551,3.06997743 L78.9164786,3.06997743 L78.9164786,70.1453725 Z" id="Shape"></path>
                            <path d="M27.5873589,13.9051919 L51.7168397,13.9051919 C52.5147229,13.9051919 53.161535,13.2583798 53.161535,12.4604966 C53.161535,11.6626135 52.5147229,11.0158014 51.7168397,11.0158014 L27.5873589,11.0158014 C26.7894758,11.0158014 26.1426637,11.6626135 26.1426637,12.4604966 C26.1426637,13.2583798 26.7894758,13.9051919 27.5873589,13.9051919 Z" id="Path"></path>
                            <path d="M27.5873589,21.1286682 L72.664921,21.1286682 C73.4628042,21.1286682 74.1096163,20.4818561 74.1096163,19.6839729 C74.1096163,18.8860898 73.4628042,18.2392777 72.664921,18.2392777 L27.5873589,18.2392777 C26.7894758,18.2392777 26.1426637,18.8860898 26.1426637,19.6839729 C26.1426637,20.4818561 26.7894758,21.1286682 27.5873589,21.1286682 Z" id="Path"></path>
                            <path d="M27.5873589,28.1715576 L72.664921,28.1715576 C73.4628042,28.1715576 74.1096163,27.5247455 74.1096163,26.7268623 C74.1096163,25.9289791 73.4628042,25.282167 72.664921,25.282167 L27.5873589,25.282167 C26.7894758,25.282167 26.1426637,25.9289791 26.1426637,26.7268623 C26.1426637,27.5247455 26.7894758,28.1715576 27.5873589,28.1715576 Z" id="Path"></path>
                            <path d="M73.4988713,35.03386 C73.4988713,34.2359769 72.8520592,33.5891648 72.0541761,33.5891648 L27.8103837,33.5891648 C27.0125006,33.5891648 26.3656885,34.2359769 26.3656885,35.03386 L26.3656885,66.6365688 C26.3656885,67.434452 27.0125006,68.0812641 27.8103837,68.0812641 L72.0541761,68.0812641 C72.8520592,68.0812641 73.4988713,67.434452 73.4988713,66.6365688 L73.4988713,35.03386 Z M70.7900677,36.4785553 L70.7900677,54.4037923 L59.8179684,46.6555305 C59.2412527,46.2511971 58.4586176,46.3135744 57.953228,46.8041535 L49.3665011,55.2350339 L39.4244695,50.391693 C38.9792255,50.1811141 38.4595423,50.1993545 38.030158,50.4406321 L29.255079,55.5091648 L29.255079,36.4785553 L70.7900677,36.4785553 Z M29.255079,58.8493002 L38.8119187,53.3262302 L47.1550339,57.4114673 L39.0999549,65.3724605 L29.255079,65.3724605 L29.255079,58.8493002 Z M43.221851,65.3724605 L59.1339052,49.7394131 L70.7900677,57.9445598 L70.7900677,65.3724605 L43.221851,65.3724605 Z" id="Shape"></path>
                            <path d="M47.6568849,50.3808578 C49.64492,50.3808578 51.437197,49.1832847 52.1979682,47.3465728 C52.9587394,45.5098608 52.5381814,43.3957253 51.1324025,41.989998 C49.7266236,40.5842707 47.6124726,40.1637904 45.7757886,40.9246291 C43.9391046,41.6854679 42.7416704,43.4777888 42.7416704,45.4658239 C42.7447557,48.1791137 44.943595,50.3778722 47.6568849,50.3808578 Z M47.6568849,43.44 C48.7757165,43.44 49.6827088,44.3469923 49.6827088,45.4658239 C49.6827088,46.5846556 48.7757165,47.4916479 47.6568849,47.4916479 C46.5380532,47.4916479 45.6310609,46.5846556 45.6310609,45.4658239 C45.6323546,44.3475286 46.5385895,43.4412937 47.6568849,43.44 Z" id="Shape"></path>
                        </g>
                    </g>
                </g>
            </g>
        </g>
    </g>
</svg>

<svg xmlns="http://www.w3.org/2000/svg" width="82" height="80" viewBox="0 0 82 80"><title>magazine</title><g fill="#888" fill-rule="nonzero"><path d="M80.361.18h-60.57A1.361 1.361 0 0 0 18.42 1.6v54.744H1.625A1.473 1.473 0 0 0 .18 57.82v11.27a11.066 11.066 0 0 0 3.05 7.71 10.257 10.257 0 0 0 7.478 3.2h61.58c5.248 0 9.518-4.406 9.518-9.855V1.6A1.422 1.422 0 0 0 80.36.18zM10.708 77.137a7.405 7.405 0 0 1-5.39-2.322 8.22 8.22 0 0 1-2.248-5.724v-9.858h15.35v9.858a8.254 8.254 0 0 1-2.285 5.724 7.488 7.488 0 0 1-5.427 2.322zm68.208-6.992c0 3.856-2.973 6.966-6.628 6.966H17.86c.11 0 .255-.201.361-.312a11.098 11.098 0 0 0 3.088-7.708V3.07h57.607v67.075z"/><path d="M27.587 13.905h24.13a1.445 1.445 0 100-2.89h-24.13a1.445 1.445 0 000 2.89zM27.587 21.129h45.078a1.445 1.445 0 100-2.89H27.587a1.445 1.445 0 000 2.89zM27.587 28.172h45.078a1.445 1.445 0 100-2.89H27.587a1.445 1.445 0 000 2.89zM73.499 35.034c0-.798-.647-1.445-1.445-1.445H27.81c-.797 0-1.444.647-1.444 1.445v31.603c0 .797.647 1.444 1.444 1.444h44.244c.798 0 1.445-.647 1.445-1.444V35.034zm-2.709 1.445v17.925l-10.972-7.748a1.468 1.468 0 00-1.865.148l-8.586 8.431-9.943-4.843a1.52 1.52 0 00-1.394.049l-8.775 5.068V36.48H70.79zm-41.535 22.37l9.557-5.523 8.343 4.085-8.055 7.961h-9.845V58.85zm13.967 6.523L59.134 49.74l11.656 8.206v7.427H43.222z"/><path d="M47.657 50.38a4.915 4.915 0 1 0 0-9.83 4.915 4.915 0 0 0 0 9.83zm0-6.94a2.026 2.026 0 1 1 0 4.052 2.026 2.026 0 0 1 0-4.052z"/></g></svg>
